packages/core/src/svgs/stos.svg

<svg width="24" height="24" viewBox="0 0 24 24" fill="none" xmlns="http://www.w3.org/2000/svg">
<g clip-path="url(#clip0_31_19406)">
<path d="M0 0H24V24H0V0Z" fill="#00847B"/>
<path d="M14.5714 8.57166C14.5714 7.50023 13.5128 6.42881 12.3985 6.42881C11.2842 6.42881 10.3028 7.50023 10.3028 8.57166C10.3028 8.88023 10.3799 9.17166 10.5085 9.42881L9.83138 10.0931L9.80995 10.1059C9.54109 9.64055 9.40889 9.10878 9.42852 8.57166C9.42852 6.91738 10.6714 5.57166 12.3985 5.57166C12.7956 5.56538 13.19 5.63846 13.5585 5.78662C13.927 5.93479 14.2622 6.15505 14.5444 6.43448C14.8266 6.71391 15.0502 7.0469 15.202 7.41389C15.3538 7.78089 15.4309 8.17451 15.4285 8.57166C15.4285 10.2259 13.8942 11.5717 12.1714 11.5717H4.71423L6.42852 10.2859V10.7145H12.2142C13.3285 10.7145 14.5714 9.64309 14.5714 8.57166ZM9.42852 15.0002C9.42852 16.0717 10.4871 17.1431 11.6014 17.1431C12.7157 17.1431 13.7142 16.0717 13.7142 15.0002C13.7142 14.6917 13.6414 14.4002 13.5085 14.1431L14.1685 13.4788L14.1899 13.4659C14.4685 13.9159 14.5714 14.4431 14.5714 15.0002C14.5714 16.6545 13.3285 18.0002 11.6014 18.0002C11.2043 18.0065 10.8099 17.9334 10.4414 17.7853C10.0729 17.6371 9.73773 17.4169 9.4555 17.1374C9.17327 16.858 8.94969 16.525 8.79787 16.158C8.64605 15.791 8.56904 15.3974 8.57138 15.0002C8.57138 13.3459 9.96852 12.0002 11.6957 12.0002H19.2857L17.5714 13.2859V12.8574H11.6957C10.5814 12.8574 9.42852 13.9288 9.42852 15.0002Z" fill="#F0F3FA"/>
</g>
<defs>
<clipPath id="clip0_31_19406">
<rect width="24" height="24" fill="white"/>
</clipPath>
</defs>
</svg>

<svg xmlns="http://www.w3.org/2000/svg" width="24" height="24" fill="none" viewBox="0 0 24 24"><g clip-path="url(#a)"><path fill="#00847B" d="M0 0h24v24H0z"/><path fill="#F0F3FA" d="M14.571 8.572c0-1.072-1.058-2.143-2.172-2.143S10.303 7.5 10.303 8.572c0 .308.077.6.205.857l-.677.664-.021.013a2.86 2.86 0 0 1-.381-1.534c0-1.655 1.242-3 2.97-3a2.983 2.983 0 0 1 3.03 3c0 1.654-1.535 3-3.258 3H4.714l1.715-1.286v.428h5.785c1.114 0 2.357-1.07 2.357-2.142M9.43 15c0 1.072 1.058 2.143 2.172 2.143s2.113-1.071 2.113-2.143c0-.308-.073-.6-.206-.857l.66-.664.022-.013c.279.45.381.977.381 1.534 0 1.654-1.242 3-2.97 3a2.984 2.984 0 0 1-3.03-3c0-1.654 1.398-3 3.125-3h7.59l-1.715 1.286v-.429h-5.875c-1.115 0-2.267 1.072-2.267 2.143"/></g><defs><clipPath id="a"><path fill="#fff" d="M0 0h24v24H0z"/></clipPath></defs></svg>
